images/index/food.svg

<svg width="75" height="70" viewBox="0 0 75 70" fill="none" xmlns="http://www.w3.org/2000/svg">
<path d="M70.5757 46.7H4.6103C2.30452 46.7 0.5 48.6 0.5 51V54.5C0.5 56.9 2.40477 58.8 4.6103 58.8H5.51257V59.9C5.51257 65.4 9.82337 70 15.1367 70H59.8488C65.1621 70 69.4729 65.5 69.4729 59.9V58.8H70.3752C72.6809 58.8 74.4855 56.9 74.4855 54.5V51C74.686 48.7 72.7812 46.7 70.5757 46.7ZM66.6659 59.9C66.6659 63.8 63.6583 66.9 59.949 66.9H15.1367C11.4274 66.9 8.41985 63.7 8.41985 59.9V58.8H66.6659V59.9ZM71.7787 54.5C71.7787 55.2 71.1772 55.8 70.5757 55.8H4.51005C3.80829 55.8 3.30704 55.2 3.30704 54.5V51C3.30704 50.3 3.90854 49.7 4.51005 49.7H70.4754C71.1772 49.7 71.6784 50.3 71.6784 51C71.7787 51 71.7787 54.5 71.7787 54.5Z" fill="#83B3D3"/>
<path d="M16.1392 38.4L21.5528 42.5L26.8661 38.4L32.1794 42.5L37.4927 38.4L42.9063 42.5L48.2196 38.4L53.5329 42.5L58.9465 38.4L64.2598 42.5L70.4754 37.8L68.7711 35.3L64.2598 38.7L58.9465 34.6L53.5329 38.7L48.2196 34.6L42.9063 38.7L37.4927 34.6L32.1794 38.7L26.8661 34.6L21.5528 38.7L16.1392 34.6L10.8259 38.7L6.31458 35.3L4.6103 37.8L10.8259 42.5L16.1392 38.4Z" fill="#83B3D3"/>
<path d="M8.52011 31.5H69.4729C69.4729 30.9 69.5732 30.3 69.5732 29.6C69.5732 29.2 69.5732 28.8 69.5732 28.4C68.8714 12.7 54.8362 0 37.593 0C20.2495 0 6.21432 12.7 5.51257 28.5C5.51257 28.9 5.51257 29.3 5.51257 29.7C5.51257 30.3 5.51257 31 5.61282 31.6H8.52011V31.5ZM37.593 3C53.2322 3 66.0644 14.3 66.6659 28.5H8.52011C9.12161 14.4 21.9538 3 37.593 3Z" fill="#83B3D3"/>
<path d="M37.593 17.3C38.645 17.3 39.4978 16.4046 39.4978 15.3C39.4978 14.1954 38.645 13.3 37.593 13.3C36.541 13.3 35.6882 14.1954 35.6882 15.3C35.6882 16.4046 36.541 17.3 37.593 17.3Z" fill="#83B3D3"/>
<path d="M29.7734 12.2C30.8254 12.2 31.6782 11.3046 31.6782 10.2C31.6782 9.09543 30.8254 8.2 29.7734 8.2C28.7214 8.2 27.8686 9.09543 27.8686 10.2C27.8686 11.3046 28.7214 12.2 29.7734 12.2Z" fill="#83B3D3"/>
<path d="M45.3123 12.2C46.3643 12.2 47.2171 11.3046 47.2171 10.2C47.2171 9.09543 46.3643 8.2 45.3123 8.2C44.2604 8.2 43.4076 9.09543 43.4076 10.2C43.4076 11.3046 44.2604 12.2 45.3123 12.2Z" fill="#83B3D3"/>
</svg>

<svg width="75" height="70" fill="none" xmlns="http://www.w3.org/2000/svg"><path d="M70.58 46.7H4.6C2.31 46.7.5 48.6.5 51v3.5c0 2.4 1.9 4.3 4.11 4.3h.9v1.1c0 5.5 4.31 10.1 9.63 10.1h44.7c5.32 0 9.63-4.5 9.63-10.1v-1.1h.9c2.31 0 4.12-1.9 4.12-4.3V51a4 4 0 0 0-3.91-4.3Zm-3.91 13.2c0 3.9-3.01 7-6.72 7H15.14c-3.71 0-6.72-3.2-6.72-7v-1.1h58.25v1.1Zm5.1-5.4c0 .7-.6 1.3-1.2 1.3H4.52c-.7 0-1.2-.6-1.2-1.3V51c0-.7.6-1.3 1.2-1.3h65.97c.7 0 1.2.6 1.2 1.3.1 0 .1 3.5.1 3.5ZM16.14 38.4l5.41 4.1 5.32-4.1 5.3 4.1 5.32-4.1 5.42 4.1 5.31-4.1 5.31 4.1 5.42-4.1 5.31 4.1 6.22-4.7-1.7-2.5-4.52 3.4-5.31-4.1-5.42 4.1-5.31-4.1-5.31 4.1-5.42-4.1-5.31 4.1-5.31-4.1-5.32 4.1-5.41-4.1-5.31 4.1-4.52-3.4-1.7 2.5 6.22 4.7 5.3-4.1ZM8.52 31.5h60.95c0-.6.1-1.2.1-1.9v-1.2C68.87 12.7 54.84 0 37.6 0 20.25 0 6.21 12.7 5.51 28.5v1.2c0 .6 0 1.3.1 1.9h2.91v-.1ZM37.59 3c15.64 0 28.47 11.3 29.08 25.5H8.52C9.12 14.4 21.95 3 37.59 3Z" fill="#83B3D3"/><path d="M37.6 17.3c1.05 0 1.9-.9 1.9-2s-.85-2-1.9-2c-1.06 0-1.91.9-1.91 2s.85 2 1.9 2ZM29.77 12.2c1.06 0 1.9-.9 1.9-2s-.84-2-1.9-2c-1.05 0-1.9.9-1.9 2s.85 2 1.9 2ZM45.31 12.2c1.05 0 1.9-.9 1.9-2s-.85-2-1.9-2c-1.05 0-1.9.9-1.9 2s.85 2 1.9 2Z" fill="#83B3D3"/></svg>
